rospo-newyear-dark/symbolic/mimetypes/playlist-symbolic.svg

<svg height="16" width="16" xmlns="http://www.w3.org/2000/svg"><path d="m3 3v2h10v-2zm0 4v2h6v-2zm0 4v2h4v-2z" fill="#d3dae3"/><path d="m10 7v4.09c-.15-.05-.33-.09-.5-.09-.83 0-1.5.67-1.5 1.5s.67 1.5 1.5 1.5 1.5-.67 1.5-1.5v-3.5h3v2.09c-.15-.05-.33-.09-.5-.09-.83 0-1.5.67-1.5 1.5s.67 1.5 1.5 1.5 1.5-.67 1.5-1.5v-5.5z" fill="#d3dae3"/></svg>

<svg xmlns="http://www.w3.org/2000/svg" width="16" height="16" version="1.1">
 <path style="fill:#d3dae3" d="M 3,3 V 5 H 13 V 3 Z M 3,7 V 9 H 9 V 7 Z M 3,11 V 13 H 7 V 11 Z"/>
 <path style="fill:#d3dae3" d="M 10,7 V 11.09 C 9.85,11.04 9.67,11 9.5,11 8.67,11 8,11.67 8,12.5 8,13.33 8.67,14 9.5,14 10.33,14 11,13.33 11,12.5 V 9 H 14 V 11.09 C 13.85,11.04 13.67,11 13.5,11 12.67,11 12,11.67 12,12.5 12,13.33 12.67,14 13.5,14 14.33,14 15,13.33 15,12.5 V 7 Z"/>
</svg>
